public/avatar/hat/114.svg

<svg xmlns:xlink="http://www.w3.org/1999/xlink" height="92.9" width="100.7" xmlns="http://www.w3.org/2000/svg"><use height="32.35" transform="translate(20.25 33.5)" width="35.5" xlink:href="#a"/><defs><g id="a" fill-rule="evenodd"><path d="m-17.25 12.35 1.35-1.45-2.5-.05Q-16.5 8-14.8 6.9l2.75-1.25 2.05 1.7-2.55 2.5q-.7 1.15-1.25 3.9l-3.85.85q0-1.5.4-2.25" fill="#4b1b09" transform="translate(18.4 16.25)"/><path d="m-10.7 5.95-.1.45 1 .6-2.25 2.75-1.65 3.3q-1.6.15-3.35.8 2.1-3.45 2.85-3.75l-3.35.35 2.85-2.65q1.15-.8 4-1.85" fill="#ff5d2d" transform="translate(18.4 16.25)"/><path d="M-13.9 10.85q.9-.95 1.4-1.15l-2.5-.05q-.05-.6 1.65-1.9l1.1-.8q.55-.05 1.5.6v.4l-1.35 1.8-.95 2.35-.85.4-.85-.1q-.1-.5.85-1.55" fill="#bf4621" transform="translate(18.4 16.25)"/><path d="M5.85-8.65 4.05-6.5l-9.5 1.15q-.1-.75.65-1.5 2-1.85 2.05-2.9.05-.9-.7-1.5-.95-.65-1.05.1l.15.9q.1.55-.35 1.2L-5.95-9q-.9-.45-1.35-1.5-1.2-2.55 1-4.3 2.7-2.25 5.9-1 2.85 1.15 6.25 7.15" transform="translate(18.4 16.25)"/><path d="m0 8.4 6.8-.7 9.05 4.3q-2.75 1-4 .95L9.2 12.1l.75 3.75-3.5-1L4.1 13l.25 3.1q-2.75-.75-5-2.7-.55-.45-1-1.95L-2 10.1l2-1.7" fill="#611f0f" transform="translate(18.4 16.25)"/><path d="M12.1 12.75 9.75 9.5q-.05-.25 1.25-5l3.75 3.1q1 1.05 2.35 4.75-.9.8-2.35.8l-2.65-.4" fill="#4b1b09" transform="translate(18.4 16.25)"/><path d="M10.45 4.7Q12.5 5.8 14 7.95q.95 1.25 2.3 4.25-3.8.65-5.5-.1-1.8-.75-2.4-1.45.8 2.05.7 4.2-1.9.05-5.6-3.05.35 1.15.35 3.55-1.45.05-3.8-2.9-1.35-1.5-1.35-3.3L.15 6.2q.2-1.65 3.65-2.75l4.5.25 2.15 1" fill="#ff5d2d" transform="translate(18.4 16.25)"/><path d="M13.65 8.1q.5 1.25-.8 1.5l-2.35.05H7.95q-.6.05-.75.4l-.5.65q-.65.5-4 0-.3 1.1-1.7 1.05-1.85-.1-1.9-1.25l2.6-1.85 2.1-.75 5.75-1.65q3-1.05 4.1 1.85" fill="#bf4621" transform="translate(18.4 16.25)"/><path d="m11.2-.15 1.4 5.3q.55 1.75-.8 2.45l-4.25.15-8.2-4.8L-7.2 7.9q-3.95-.05-4.7-.75-.7-.65-.1-2.95l1.2-4.35Q-10.3-4-8.9-4q1.3 0 1.65 1.1.2-1.75 2.45-3.95Q-3.2-8.4.7-8.4l3.1-.4 2.05.15 2.25 5.4.3-.4q.45-.45 1.3-.45.8 0 1.5 3.95" transform="translate(18.4 16.25)"/><path d="M11.8 7.6q-6.45 3-11.45 3-3.1 0-7.5-1.5l-3.75-1.5 1.35-1.15L.55 8 10.7 6.35l1.1 1.25" fill="#0c4415" transform="translate(18.4 16.25)"/><path d="M1.95-12.45q2.8 3.3 5.5 9.3l4.2 10.05q-6 2.3-11 2.3h-.4q-3.15 0-7.35-1.15l-3.65-1.15q.25.1 4.7-10.8l1.95-2q2.55-3.1 2.15-4.5-.25-.95-1.15-1.6l-1.8-.15q-.45.3-.2 1.55.25 1.1-.2 1.1-1.2 0-1.6-1.3-.35-1.15 0-2.05 1.1-2.6 3.9-2.8 2.25-.15 4.95 3.2" fill="#298b2d" transform="translate(18.4 16.25)"/><path d="m4.85-8.8 3.6 7.3 1.5 7.7q-1.25 1.7-3 2.05l-5.5.95L2 7.85q.55-12.5.05-15.4L-.7-15q3.4 2.1 5.55 6.2" fill="#207024" transform="translate(18.4 16.25)"/><path d="m-7.75 3.55 7.7-1.4 10 .7q-5.15 2-10.4 2L-6.3 4.1l-1.45-.55-.45.05v-.25l.45.2" fill="#523c12" transform="translate(18.4 16.25)"/><path d="m9.35-.85.5 3.15Q6.2 4.25-.65 4.25q-4.3 0-6.8-1.4l-1.7-1.4 1.1-3.6 2.4 1.1Q-2.8 0-.4 0q2.7 0 5.75-.9Q8.2-1.7 8.5-2.4q.3-.55.6.35l.25 1.2" fill="#a47925" transform="translate(18.4 16.25)"/><path d="m8.35-1.25-.3 3.1-1.3 1.05-2 .35.1-2.4L6.7-.5l1.65-.75" fill="#7c5a1b" transform="translate(18.4 16.25)"/><path d="m-8.4-2.1 2.55 1q3.05 1 5.8 1Q4.3-.1 5.3-1 3.3 1-.05.85-2.15.75-5.5-.7l-2.9-1.4" fill="#d79f31" transform="translate(18.4 16.25)"/><path d="M2.75 9Q5 8.15 5.95 6.1L7.65.15Q8.9-4.1 9.95-3.3q.3.25 1.65 7.2.75 1.85.05 3-5.8 1.7-8.9 2.1" fill="#104e19" transform="translate(18.4 16.25)"/><path d="m-2.4 9-8.9-2.1q-.65-1.15.1-3 1.55-6.8 1.9-7.05Q-7.65-4.5-5.55 6.1q.9 2.05 3.15 2.9" fill="#14581c" transform="translate(18.4 16.25)"/><path d="M2.85.25.4 0l-2.6.4q-.4.25-.4 1.9-.05 1.7.45 1.8l4.85-.15q.25-.25.3-1.85Q3.1.55 2.85.25m-7.15-2q.65-.6 4.15-.75l4.85.55q.7.4.6 3.7-.1 3.05-.55 4.05-.3.75-4 .75l-4.8-.5q-1.1-.45-.95-3.9.1-3.3.7-3.9" fill="#262a2e" transform="translate(18.4 16.25)"/><path d="m.35-1.65 3.85.35q.35.35.3 3.25 0 2.9-.45 3.45-.45.45-3.65.5l-4-.2q-.75-.2-.75-3.4 0-3.15.6-3.55l4.1-.4M3.1-.4.05-.7l-2.95.4q-.6.3-.4 2.6.15 2.3.65 2.4l2.95.1L3 4.6q.35-.35.5-2.4.2-2.25-.4-2.6" fill="#d7edfe" transform="translate(18.4 16.25)"/><path d="m3.65-1.1.1-.25.45.15.35 2.35q.3 3.4-.5 4.25-.6.65-4.85.5 3.75-.45 4.25-.95.4-.4.5-2.95l-.3-3.1" fill="#a7b7c4" transform="translate(18.4 16.25)"/><path d="m4.1-1.35.25.55L.3-1.2l-4.4.55.35-.6.45-.2 2.65-.5 4.75.6M0 5.15l-2.7-.35 1.35-.2 3.6.15.65-.05-2.9.45" fill="#fff" transform="translate(18.4 16.25)"/><path d="m1.85 1.1 2-.05q.7.35.4 2.1l-3.9.25q-.65 0-.75-.8-.1-.75.2-1.15l2.05-.35" fill="#262a2e" transform="translate(18.4 16.25)"/><path d="m.2 1.9 3.95-.2q0 1.05-.2 1.05H.35Q.2 2.75.2 1.9" fill="#d7edfe" transform="translate(18.4 16.25)"/><path d="M-2.25-.55-3.3 1.2l.25 3.3.4.2-.7.25-.45-3.9q0-.85.4-1.3l.35-.25.8-.05" fill="#a7b7c4" transform="translate(18.4 16.25)"/><path d="M-5.15-9.55q-1.6-.8-.6-2.7.55-.95 1.65-1.15 1.2-.25 1.85.75.85 1.35.55 3.3l-.5-1.75q-.7-1.45-1.9-1.25-1.15.15-1.15 1.05l.1 1.75" fill="#12551c" transform="translate(18.4 16.25)"/><path d="m10.3 9.1 1.9-1.75q2.1 1 3.1 4.15-2.8-1.95-5-2.4" fill="#bf4621" transform="translate(18.4 16.25)"/></g></defs></svg>

<?xml version="1.0" encoding="UTF-8" standalone="no"?>
<svg xmlns:xlink="http://www.w3.org/1999/xlink" height="92.9px" width="100.7px" xmlns="http://www.w3.org/2000/svg">
  <g transform="matrix(1.0, 0.0, 0.0, 1.0, 38.65, 49.75)">
    <use height="32.35" transform="matrix(1.0, 0.0, 0.0, 1.0, -18.4, -16.25)" width="35.5" xlink:href="#shape0"/>
  </g>
  <defs>
    <g id="shape0" transform="matrix(1.0, 0.0, 0.0, 1.0, 18.4, 16.25)">
      <path d="M-17.25 12.35 L-15.9 10.9 -18.4 10.85 Q-16.5 8.0 -14.8 6.9 L-12.05 5.65 -10.0 7.35 -12.55 9.85 Q-13.25 11.0 -13.8 13.75 L-17.65 14.6 Q-17.65 13.1 -17.25 12.35" fill="#4b1b09" fill-rule="evenodd" stroke="none"/>
      <path d="M-10.7 5.95 L-10.8 6.4 -9.8 7.0 -12.05 9.75 -13.7 13.05 Q-15.3 13.2 -17.05 13.85 -14.95 10.4 -14.2 10.1 L-17.55 10.45 -14.7 7.8 Q-13.55 7.0 -10.7 5.95" fill="#ff5d2d" fill-rule="evenodd" stroke="none"/>
      <path d="M-13.9 10.85 Q-13.0 9.9 -12.5 9.7 L-15.0 9.65 Q-15.05 9.05 -13.35 7.75 L-12.25 6.95 Q-11.7 6.9 -10.75 7.55 L-10.75 7.95 -12.1 9.75 -13.05 12.1 -13.9 12.5 -14.75 12.4 Q-14.85 11.9 -13.9 10.85" fill="#bf4621" fill-rule="evenodd" stroke="none"/>
      <path d="M5.85 -8.65 L4.05 -6.5 -5.45 -5.35 Q-5.55 -6.1 -4.8 -6.85 -2.8 -8.7 -2.75 -9.75 -2.7 -10.65 -3.45 -11.25 -4.4 -11.9 -4.5 -11.15 L-4.35 -10.25 Q-4.25 -9.7 -4.7 -9.05 L-5.95 -9.0 Q-6.85 -9.45 -7.3 -10.5 -8.5 -13.05 -6.3 -14.8 -3.6 -17.05 -0.4 -15.8 2.45 -14.65 5.85 -8.65" fill="#000000" fill-rule="evenodd" stroke="none"/>
      <path d="M0.0 8.4 L6.8 7.7 15.85 12.0 Q13.1 13.0 11.85 12.95 L9.2 12.1 9.95 15.85 6.45 14.85 4.1 13.0 4.35 16.1 Q1.6 15.35 -0.65 13.4 -1.2 12.95 -1.65 11.45 L-2.0 10.1 0.0 8.4" fill="#611f0f" fill-rule="evenodd" stroke="none"/>
      <path d="M12.1 12.75 L9.75 9.5 Q9.7 9.25 11.0 4.5 L14.75 7.6 Q15.75 8.65 17.1 12.35 16.2 13.15 14.75 13.15 L12.1 12.75" fill="#4b1b09" fill-rule="evenodd" stroke="none"/>
      <path d="M10.45 4.7 Q12.5 5.8 14.0 7.95 14.95 9.2 16.3 12.2 12.5 12.85 10.8 12.1 9.0 11.35 8.4 10.65 9.2 12.7 9.1 14.85 7.2 14.9 3.5 11.8 3.85 12.95 3.85 15.35 2.4 15.4 0.05 12.45 -1.3 10.95 -1.3 9.15 L0.15 6.2 Q0.35 4.55 3.8 3.45 L8.3 3.7 10.45 4.7" fill="#ff5d2d" fill-rule="evenodd" stroke="none"/>
      <path d="M13.65 8.1 Q14.15 9.35 12.85 9.6 L10.5 9.65 7.95 9.65 Q7.35 9.7 7.2 10.05 L6.7 10.7 Q6.05 11.2 2.7 10.7 2.4 11.8 1.0 11.75 -0.85 11.65 -0.9 10.5 L1.7 8.65 3.8 7.9 9.55 6.25 Q12.55 5.2 13.65 8.1" fill="#bf4621" fill-rule="evenodd" stroke="none"/>
      <path d="M11.2 -0.15 L12.6 5.15 Q13.15 6.9 11.8 7.6 L7.55 7.75 -0.65 2.95 -7.2 7.9 Q-11.15 7.85 -11.9 7.15 -12.6 6.5 -12.0 4.2 L-10.8 -0.15 Q-10.3 -4.0 -8.9 -4.0 -7.6 -4.0 -7.25 -2.9 -7.05 -4.65 -4.8 -6.85 -3.2 -8.4 0.7 -8.4 L3.8 -8.8 5.85 -8.65 8.1 -3.25 8.4 -3.65 Q8.85 -4.1 9.7 -4.1 10.5 -4.1 11.2 -0.15" fill="#000000" fill-rule="evenodd" stroke="none"/>
      <path d="M11.8 7.6 Q5.35 10.6 0.35 10.6 -2.75 10.6 -7.15 9.1 L-10.9 7.6 -9.55 6.45 0.55 8.0 10.7 6.35 11.8 7.6" fill="#0c4415" fill-rule="evenodd" stroke="none"/>
      <path d="M1.95 -12.45 Q4.75 -9.15 7.45 -3.15 L11.65 6.9 Q5.65 9.2 0.65 9.2 L0.25 9.2 Q-2.9 9.2 -7.1 8.05 L-10.75 6.9 Q-10.5 7.0 -6.05 -3.9 L-4.1 -5.9 Q-1.55 -9.0 -1.95 -10.4 -2.2 -11.35 -3.1 -12.0 L-4.9 -12.15 Q-5.35 -11.85 -5.1 -10.6 -4.85 -9.5 -5.3 -9.5 -6.5 -9.5 -6.9 -10.8 -7.25 -11.95 -6.9 -12.85 -5.8 -15.45 -3.0 -15.65 -0.75 -15.8 1.95 -12.45" fill="#298b2d" fill-rule="evenodd" stroke="none"/>
      <path d="M4.85 -8.8 L8.45 -1.5 9.95 6.2 Q8.7 7.9 6.95 8.25 L1.45 9.2 2.0 7.85 Q2.55 -4.65 2.05 -7.55 L-0.7 -15.0 Q2.7 -12.9 4.85 -8.8" fill="#207024" fill-rule="evenodd" stroke="none"/>
      <path d="M-7.75 3.55 L-0.05 2.15 9.95 2.85 Q4.8 4.85 -0.45 4.85 L-6.3 4.1 -7.75 3.55 -8.2 3.6 -8.2 3.35 -7.75 3.55" fill="#523c12" fill-rule="evenodd" stroke="none"/>
      <path d="M9.35 -0.85 L9.85 2.3 Q6.2 4.25 -0.65 4.25 -4.95 4.25 -7.45 2.85 L-9.15 1.45 -8.05 -2.15 -5.65 -1.05 Q-2.8 0.0 -0.4 0.0 2.3 0.0 5.35 -0.9 8.2 -1.7 8.5 -2.4 8.8 -2.95 9.1 -2.05 L9.35 -0.85" fill="#a47925" fill-rule="evenodd" stroke="none"/>
      <path d="M8.35 -1.25 L8.05 1.85 6.75 2.9 4.75 3.25 4.85 0.85 6.7 -0.5 8.35 -1.25" fill="#7c5a1b" fill-rule="evenodd" stroke="none"/>
      <path d="M-8.4 -2.1 L-5.85 -1.1 Q-2.8 -0.1 -0.05 -0.1 4.3 -0.1 5.3 -1.0 3.3 1.0 -0.05 0.85 -2.15 0.75 -5.5 -0.7 L-8.4 -2.1" fill="#d79f31" fill-rule="evenodd" stroke="none"/>
      <path d="M2.75 9.0 Q5.0 8.15 5.95 6.1 L7.65 0.15 Q8.9 -4.1 9.95 -3.3 10.25 -3.05 11.6 3.9 12.35 5.75 11.65 6.9 5.85 8.6 2.75 9.0" fill="#104e19" fill-rule="evenodd" stroke="none"/>
      <path d="M-2.4 9.0 L-11.3 6.9 Q-11.95 5.75 -11.2 3.9 -9.65 -2.9 -9.3 -3.15 -7.65 -4.5 -5.55 6.1 -4.65 8.15 -2.4 9.0" fill="#14581c" fill-rule="evenodd" stroke="none"/>
      <path d="M2.85 0.25 L0.4 0.0 -2.2 0.4 Q-2.6 0.65 -2.6 2.3 -2.65 4.0 -2.15 4.1 L2.7 3.95 Q2.95 3.7 3.0 2.1 3.1 0.55 2.85 0.25 M-4.3 -1.75 Q-3.65 -2.35 -0.15 -2.5 L4.7 -1.95 Q5.4 -1.55 5.3 1.75 5.2 4.8 4.75 5.8 4.45 6.55 0.75 6.55 L-4.05 6.05 Q-5.15 5.6 -5.0 2.15 -4.9 -1.15 -4.3 -1.75" fill="#262a2e" fill-rule="evenodd" stroke="none"/>
      <path d="M0.35 -1.65 L4.2 -1.3 Q4.55 -0.95 4.5 1.95 4.5 4.85 4.05 5.4 3.6 5.85 0.4 5.9 L-3.6 5.7 Q-4.35 5.5 -4.35 2.3 -4.35 -0.85 -3.75 -1.25 L0.35 -1.65 M3.1 -0.4 L0.05 -0.7 -2.9 -0.3 Q-3.5 0.0 -3.3 2.3 -3.15 4.6 -2.65 4.7 L0.3 4.8 3.0 4.6 Q3.35 4.25 3.5 2.2 3.7 -0.05 3.1 -0.4" fill="#d7edfe" fill-rule="evenodd" stroke="none"/>
      <path d="M3.65 -1.1 L3.75 -1.35 4.2 -1.2 4.55 1.15 Q4.85 4.55 4.05 5.4 3.45 6.05 -0.8 5.9 2.95 5.45 3.45 4.95 3.85 4.55 3.95 2.0 L3.65 -1.1" fill="#a7b7c4" fill-rule="evenodd" stroke="none"/>
      <path d="M4.1 -1.35 L4.35 -0.8 0.3 -1.2 -4.1 -0.65 -3.75 -1.25 -3.3 -1.45 -0.65 -1.95 4.1 -1.35" fill="#ffffff" fill-rule="evenodd" stroke="none"/>
      <path d="M0.0 5.15 L-2.7 4.8 -1.35 4.6 2.25 4.75 2.9 4.7 0.0 5.15" fill="#ffffff" fill-rule="evenodd" stroke="none"/>
      <path d="M1.85 1.1 L3.85 1.05 Q4.55 1.4 4.25 3.15 L0.35 3.4 Q-0.3 3.4 -0.4 2.6 -0.5 1.85 -0.2 1.45 L1.85 1.1" fill="#262a2e" fill-rule="evenodd" stroke="none"/>
      <path d="M0.2 1.9 L4.15 1.7 Q4.15 2.75 3.95 2.75 L0.35 2.75 Q0.2 2.75 0.2 1.9" fill="#d7edfe" fill-rule="evenodd" stroke="none"/>
      <path d="M-2.25 -0.55 L-3.3 1.2 -3.05 4.5 -2.65 4.7 -3.35 4.95 -3.8 1.05 Q-3.8 0.2 -3.4 -0.25 L-3.05 -0.5 -2.25 -0.55" fill="#a7b7c4" fill-rule="evenodd" stroke="none"/>
      <path d="M-5.15 -9.55 Q-6.75 -10.35 -5.75 -12.25 -5.2 -13.2 -4.1 -13.4 -2.9 -13.65 -2.25 -12.65 -1.4 -11.3 -1.7 -9.35 L-2.2 -11.1 Q-2.9 -12.55 -4.1 -12.35 -5.25 -12.2 -5.25 -11.3 L-5.15 -9.55" fill="#12551c" fill-rule="evenodd" stroke="none"/>
      <path d="M10.3 9.1 L12.2 7.35 Q14.3 8.35 15.3 11.5 12.5 9.55 10.3 9.1" fill="#bf4621" fill-rule="evenodd" stroke="none"/>
    </g>
  </defs>
</svg>
